src/actions/22/timeline-lift.svg

<svg xmlns="http://www.w3.org/2000/svg" viewBox="0 0 22 22">
    <defs id="defs3051">
        <style id="current-color-scheme" type="text/css">
            .ColorScheme-Text{color:#050505;opacity:.7}
        </style>
    </defs>
    <path d="M3 11v4h4v-4H3zm12 0v4h4v-4h-4zM6 10h1v1H6zm9 0h1v1h-1z" class="ColorScheme-Text" style="fill:currentColor;fill-opacity:1;stroke:none"/>
    <path d="m9.207 10.5-.707.707L10.293 13 8.5 14.793l.707.707L11 13.707l1.793 1.793.707-.707L11.707 13l1.793-1.793-.707-.707L11 12.293 9.207 10.5Z" style="fill:#d98c8c"/>
</svg>

<svg xmlns="http://www.w3.org/2000/svg" viewBox="0 0 22 22">
  <defs id="defs3051">
    <style type="text/css" id="current-color-scheme">
      .ColorScheme-Text {
        color:#363636;
      }
      </style>
  </defs>
 <path 
     style="fill:currentColor;fill-opacity:1;stroke:none" 
     d="m 3,11 0,4 4,0 0,-4 -4,0 z m 12,0 0,4 4,0 0,-4 -4,0 z"
	 class="ColorScheme-Text"
     />
 <path 
     style="fill:currentColor;fill-opacity:1;stroke:none" 
     d="M6 10H7V11H6zM15 10H16V11H15z"
     class="ColorScheme-Text"
     />
 <path 
     style="fill:#d19494"
     d="M 9.207,10.5 8.5,11.207 10.293,13 8.5,14.793 9.207,15.5 11,13.707 12.793,15.5 13.5,14.793 11.707,13 13.5,11.207 12.793,10.5 11,12.293 9.207,10.5 Z"
	 />
</svg>
